X: 20763
T: BOSTON ASSEMBLY
C:
%R: jig
B: Elias Howe "The Musician's Companion" 1843 p.77 #3
S: http://imslp.org/wiki/The_Musician's_Companion_(Howe,_Elias)
Z: 2015 John Chambers <jc:trillian.mit.edu>
M: 6/8
L: 1/8
K: D
% - - - - - - - - - - - - - - - - - - - - - - - - -
A/G/ |\
FAd fed | g2f b2a | agf fed | dcB BAG |\
FAd fed | g2f b2a | agf fed | dec "^Fine"d2 :|
c/d/ |\
e2e ecA | ^G2A B2c | d2d dB^G | AcA E2 c/d/ |\
e2e ecA | a2a afd | .c.e.c dB^G | ABA GA"^D.C."G |]
% - - - - - - - - - - - - - - - - - - - - - - - - -

%%sep 1 1 500

